src/lib/packages/icons/src/assets/line/comment-check.svg

<svg width="24" height="24" viewBox="0 0 24 24" fill="none" xmlns="http://www.w3.org/2000/svg">
<path d="M3.85693 21.75C3.71193 21.75 3.57111 21.748 3.43311 21.743C2.93311 21.731 2.49497 21.411 2.32397 20.928C2.15197 20.442 2.29408 19.9131 2.68408 19.5811C3.61608 18.8291 3.98892 17.997 4.13892 17.426C2.90192 15.947 2.24902 14.08 2.24902 12.001C2.24902 6.84798 6.25902 3.25 11.999 3.25C17.739 3.25 21.749 6.84898 21.749 12.001C21.749 12.38 21.7271 12.748 21.6841 13.094C21.6321 13.505 21.2519 13.793 20.8469 13.745C20.4359 13.694 20.144 13.319 20.196 12.908C20.232 12.618 20.25 12.309 20.25 12.001C20.25 7.73098 16.857 4.75 12 4.75C7.143 4.75 3.75 7.73198 3.75 12.001C3.75 13.837 4.35498 15.463 5.50098 16.703C5.65598 16.871 5.72692 17.101 5.69092 17.328C5.52292 18.399 4.99511 19.412 4.18311 20.243C5.34311 20.201 6.90304 19.934 7.86304 18.91C8.06404 18.694 8.37503 18.617 8.65503 18.714C9.69003 19.072 10.815 19.2531 12 19.2531C12.414 19.2531 12.75 19.5891 12.75 20.0031C12.75 20.4171 12.414 20.7531 12 20.7531C10.813 20.7531 9.67496 20.592 8.60596 20.274C7.24196 21.46 5.36393 21.75 3.85693 21.75ZM3.47803 20.243C3.48003 20.243 3.48189 20.243 3.48389 20.243C3.48089 20.244 3.47903 20.244 3.47803 20.243ZM18.197 20.53L21.53 17.197C21.823 16.904 21.823 16.429 21.53 16.136C21.237 15.843 20.762 15.843 20.469 16.136L17.666 18.939L16.5291 17.803C16.2361 17.51 15.761 17.51 15.468 17.803C15.175 18.096 15.175 18.571 15.468 18.864L17.135 20.531C17.281 20.677 17.473 20.751 17.665 20.751C17.857 20.751 18.051 20.677 18.197 20.53Z" fill="currentColor"/>
</svg>

<svg xmlns="http://www.w3.org/2000/svg" width="24" height="24" fill="none"><path fill="currentColor" d="M3.857 21.75c-.145 0-.286-.002-.424-.007a1.207 1.207 0 0 1-1.109-.815 1.221 1.221 0 0 1 .36-1.347c.932-.752 1.305-1.584 1.455-2.155-1.237-1.479-1.89-3.346-1.89-5.425 0-5.153 4.01-8.751 9.75-8.751s9.75 3.599 9.75 8.751c0 .379-.022.747-.065 1.093a.749.749 0 1 1-1.488-.186c.036-.29.054-.599.054-.907 0-4.27-3.393-7.251-8.25-7.251s-8.25 2.982-8.25 7.251c0 1.836.605 3.462 1.751 4.702a.749.749 0 0 1 .19.625c-.168 1.071-.696 2.084-1.508 2.915 1.16-.042 2.72-.309 3.68-1.333a.748.748 0 0 1 .792-.196c1.035.358 2.16.54 3.345.54a.75.75 0 0 1 0 1.5c-1.187 0-2.325-.162-3.394-.48-1.364 1.186-3.242 1.476-4.75 1.476Zm-.379-1.507h.006-.006Zm14.719.287 3.333-3.333a.75.75 0 1 0-1.061-1.061l-2.803 2.803-1.137-1.136a.75.75 0 0 0-1.061 1.061l1.667 1.667a.748.748 0 0 0 1.062-.001Z"/></svg>
